X:3
T:Gankino Horo
R:kopanitsa
S:Boris Karlov
O:Bulgaria
Z:id:hn-kopanitsa-3
M:2+2+3+2+2/16
L:1/16
Q:1/8=220
K:Ddor ^g =f
|: "Dm"D2^cd dzd d=cBA | cBA^G GFA G2FE | D2EF FDA ^G2FA | ^G2FE EDF "E"EEED :|
|: "Dm"D2EF FDA ^G2FE | D2dd dcB A^GFE | D2EF FDA ^G2FA | ^G2FE EDF "E"EEED :|
K:A
|: "E7"Bcdd dBd "A"cccA | "E7"ecdd dBd "A"cccA |
   "E7"Bcdd dBd "A"cccA | "E"BAGA BBe B2 z2 :|
K:Ddor ^g =f
|: "E"AB^G2 "Dm"FED "E"EEEB, | "E"AB ^G2 "Dm"FED "E"EEEB, |
   "E"AB^G2 ABG ABGz | "E"AB^G2 "Dm"FED EEEB, :|
K:D
|: "A7"efgg geg "D"fffd | "A7"afgg geg "D"fffd |
   "A7"efgg geg "D"fffd | "A"edcd "E7"eea "A"ezz2 :|

